resources/skins.minerva.userpage.styles/userpage.svg

<?xml version="1.0" encoding="UTF-8" standalone="no"?>
<svg width="88px" height="118px" viewBox="0 0 88 118" version="1.1" xmlns="http://www.w3.org/2000/svg" xmlns:xlink="http://www.w3.org/1999/xlink" xmlns:sketch="http://www.bohemiancoding.com/sketch/ns">
    <!-- Generator: Sketch 3.4.2 (15855) - http://www.bohemiancoding.com/sketch -->
    <title>userpage</title>
    <desc>Created with Sketch.</desc>
    <defs></defs>
    <g id="Page-1" stroke="none" stroke-width="1" fill="none" fill-rule="evenodd" sketch:type="MSPage">
        <g id="youdonthaveuserpage" sketch:type="MSArtboardGroup" transform="translate(-333.000000, -629.000000)" fill="#000000">
            <g id="userpage" sketch:type="MSLayerGroup" transform="translate(333.000000, 629.000000)">
                <path d="M86.1556,18.3999574 L69.682,2.16617021 C68.9202,1.416 68.0674,0.554212766 66.3722,0.554212766 L5.6076,0.554212766 C2.6098,0.554212766 0.1736,3.03055319 0.1736,6.07017021 L0.1736,112.345149 C0.1736,115.366596 2.6098,117.829957 5.6076,117.829957 L82.3388,117.829957 C85.3444,117.829957 87.791,115.366596 87.791,112.345149 L87.791,21.9509362 C87.7806,20.2351489 86.959,19.1916596 86.1556,18.3999574 L86.1556,18.3999574 Z M83.9014,20.4298298 L67.8854,20.4298298 L67.8854,4.65029787 L83.9014,20.4298298 Z M82.3388,114.808511 L5.6076,114.808511 C4.2868,114.808511 3.2104,113.702723 3.2104,112.345149 L3.2104,6.08055319 C3.2104,4.7333617 4.3076,3.59642553 5.6076,3.59642553 L64.8486,3.59642553 L64.8486,21.9509362 C64.8486,22.7919574 65.5298,23.4616596 66.3618,23.4616596 L84.7438,23.4616596 L84.7438,112.345149 C84.7438,113.702723 83.6674,114.808511 82.3388,114.808511 L82.3388,114.808511 Z" id="Fill-1" sketch:type="MSShapeGroup"></path>
                <path d="M64.7612,94.7018723 L20.5222,94.7018723 C19.6798,94.7018723 19.009,95.3819574 19.009,96.2125957 C19.009,97.053617 19.6902,97.7233191 20.5222,97.7233191 L64.7612,97.7233191 C65.6062,97.7233191 66.277,97.043234 66.277,96.2125957 C66.277,95.3715745 65.6062,94.7018723 64.7612,94.7018723 L64.7612,94.7018723 Z" id="Fill-2" sketch:type="MSShapeGroup"></path>
                <path d="M64.9562,70.244766 C52.4216,64.9312766 50.3208,62.7015319 49.9646,62.0915319 L49.9646,60.4588085 C51.366,58.735234 52.4632,56.5054894 53.173,53.9616596 C55.0528,52.1654043 55.4298,49.1050213 54.0466,46.8129787 L54.0466,41.6915745 C54.0466,34.5740426 50.0062,30.4883404 42.9472,30.4883404 C36,30.4883404 31.8452,34.6752766 31.8452,41.6915745 L31.8452,46.8129787 C30.475,49.1050213 30.852,52.1550213 32.7292,53.9512766 C33.4416,56.4951064 34.5388,58.7274468 35.9402,60.4510213 L35.9402,62.0915319 C35.5528,62.782 33.3194,64.9728085 20.9278,70.244766 C19.7604,70.7509362 18.9986,71.9475745 18.9986,73.2869787 L18.9986,79.5115745 C18.9986,81.3285957 20.3896,82.7977872 22.0952,82.7977872 L63.7888,82.7977872 C65.5048,82.7977872 66.8958,81.3182128 66.8958,79.5115745 L66.8958,73.2869787 C66.9166,71.9475745 66.1444,70.7509362 64.9562,70.244766 L64.9562,70.244766 Z M63.8798,79.5219574 C63.8798,79.6751064 63.8174,79.7555745 63.7888,79.7867234 L22.1576,79.7971064 C22.1264,79.7867234 22.0562,79.6854894 22.0562,79.5219574 L22.0562,73.2973617 C22.0562,73.1442128 22.1264,73.0429787 22.1472,73.0325957 C36.0208,67.1324681 38.4076,64.6275745 38.9354,62.802766 C38.977,62.670383 38.9952,62.527617 38.9952,62.3874468 L38.9952,59.9033191 C38.9952,59.5373191 38.8652,59.1713191 38.6104,58.898766 C37.2584,57.3776596 36.2028,55.2491489 35.5632,52.7442553 C35.4826,52.4197872 35.2902,52.1264681 35.025,51.9214043 C33.9486,51.090766 33.7458,49.3360426 34.609,48.1705532 C34.8014,47.908383 34.9028,47.5917021 34.9028,47.267234 L34.9028,41.6915745 C34.9028,37.9614894 36.3042,33.5201702 42.968,33.5201702 C48.3188,33.5201702 51.0306,36.2664681 51.0306,41.6915745 L51.0306,47.267234 C51.0306,47.5917021 51.132,47.908383 51.327,48.1705532 C52.2812,49.4580426 51.873,51.181617 50.9188,51.9214043 C50.6562,52.1264681 50.4612,52.4197872 50.3806,52.7442553 C49.741,55.2491489 48.6854,57.3776596 47.3334,58.898766 C47.0916,59.1713191 46.9486,59.5373191 46.9486,59.9033191 L46.9486,62.3874468 C46.9486,62.527617 46.9694,62.66 47.0084,62.792383 C47.5076,64.5471064 49.884,67.1324681 63.7888,73.0222128 C63.807,73.0325957 63.8902,73.1234468 63.8902,73.2869787 L63.8902,79.5219574 L63.8798,79.5219574 Z" id="Fill-3" sketch:type="MSShapeGroup"></path>
            </g>
        </g>
    </g>
</svg>

<?xml version="1.0" encoding="UTF-8" standalone="no"?>
<svg width="88" height="118" viewBox="0 0 88 118" xmlns="http://www.w3.org/2000/svg">
    <title>
        userpage
    </title>
    <g id="Page-1" fill="none" fill-rule="evenodd">
        <g id="youdonthaveuserpage" fill="#000">
            <g id="userpage">
                <path d="M86.156 18.4L69.682 2.166c-.762-.75-1.615-1.612-3.31-1.612H5.608C2.61.554.174 3.03.174 6.07v106.275c0 3.022 2.436 5.485 5.434 5.485h76.73c3.006 0 5.453-2.463 5.453-5.485V21.95c-.01-1.715-.83-2.758-1.633-3.55zM83.9 20.43H67.886V4.65L83.9 20.43zm-1.56 94.38H5.607c-1.32 0-2.398-1.107-2.398-2.465V6.08c0-1.347 1.097-2.484 2.397-2.484h59.24V21.95a1.51 1.51 0 0 0 1.514 1.512h18.383v88.883c0 1.358-1.077 2.464-2.405 2.464z" id="Fill-1"/>
                <path d="M64.76 94.702H20.523a1.51 1.51 0 0 0 0 3.02h44.24a1.51 1.51 0 0 0 1.515-1.51c0-.84-.67-1.51-1.516-1.51z" id="Fill-2"/>
                <path d="M64.956 70.245c-12.534-5.314-14.635-7.543-14.99-8.153V60.46c1.4-1.725 2.497-3.955 3.207-6.498 1.88-1.797 2.257-4.857.874-7.15v-5.12c0-7.118-4.04-11.204-11.1-11.204-6.947 0-11.102 4.187-11.102 11.204v5.12c-1.37 2.293-.993 5.343.884 7.14.71 2.543 1.81 4.775 3.21 6.5v1.64c-.388.69-2.62 2.88-15.013 8.153-1.168.506-1.93 1.703-1.93 3.042v6.225c0 1.817 1.392 3.286 3.097 3.286H63.79c1.715 0 3.106-1.48 3.106-3.286v-6.225c.02-1.34-.752-2.536-1.94-3.042zm-1.076 9.277a.375.375 0 0 1-.09.265l-41.632.01c-.032-.01-.102-.112-.102-.275v-6.225c0-.153.07-.254.09-.264 13.875-5.9 16.262-8.405 16.79-10.23.04-.133.06-.275.06-.416v-2.484c0-.366-.13-.732-.386-1.004-1.352-1.523-2.407-3.65-3.047-6.157a1.507 1.507 0 0 0-.538-.823c-1.076-.83-1.28-2.584-.416-3.75.19-.262.292-.578.292-.903v-5.575c0-3.73 1.4-8.172 8.065-8.172 5.35 0 8.063 2.746 8.063 8.172v5.575c0 .325.102.64.297.904.954 1.29.546 3.013-.408 3.75a1.52 1.52 0 0 0-.54.825c-.64 2.505-1.696 4.634-3.048 6.155-.24.27-.384.637-.384 1.003v2.484c0 .14.02.273.058.405.5 1.755 2.876 4.34 16.78 10.23.02.01.102.1.102.265v6.235h-.01z" id="Fill-3"/>
            </g>
        </g>
    </g>
</svg>
